bernoullicharts/1_1_x_two-coin_special_case__bits.svg

<?xml version="1.0" encoding="utf-8" standalone="no"?>
<!DOCTYPE svg PUBLIC "-//W3C//DTD SVG 1.1//EN"
  "http://www.w3.org/Graphics/SVG/1.1/DTD/svg11.dtd">
<!-- Created with matplotlib (https://matplotlib.org/) -->
<svg height="345.6pt" version="1.1" viewBox="0 0 460.8 345.6" width="460.8pt" xmlns="http://www.w3.org/2000/svg" xmlns:xlink="http://www.w3.org/1999/xlink">
 <defs>
  <style type="text/css">
*{stroke-linecap:butt;stroke-linejoin:round;}
  </style>
 </defs>
 <g id="figure_1">
  <g id="patch_1">
   <path d="M 0 345.6 
L 460.8 345.6 
L 460.8 0 
L 0 0 
z
" style="fill:#ffffff;"/>
  </g>
  <g id="axes_1">
   <g id="patch_2">
    <path d="M 57.6 307.584 
L 414.72 307.584 
L 414.72 41.472 
L 57.6 41.472 
z
" style="fill:#ffffff;"/>
   </g>
   <g id="matplotlib.axis_1">
    <g id="xtick_1">
     <g id="line2d_1">
      <defs>
       <path d="M 0 0 
L 0 3.5 
" id="mce6b828a41" style="stroke:#000000;stroke-width:0.8;"/>
      </defs>
      <g>
       <use style="stroke:#000000;stroke-width:0.8;" x="73.800255" xlink:href="#mce6b828a41" y="307.584"/>
      </g>
     </g>
     <g id="text_1">
      <text style="font-family:DejaVu Sans;font-size:10px;font-style:normal;font-weight:normal;text-anchor:middle;" transform="rotate(-0, 73.800255, 322.182437)" x="73.800255" y="322.182437">0.0</text>
     </g>
    </g>
    <g id="xtick_2">
     <g id="line2d_2">
      <g>
       <use style="stroke:#000000;stroke-width:0.8;" x="138.744153" xlink:href="#mce6b828a41" y="307.584"/>
      </g>
     </g>
     <g id="text_2">
      <text style="font-family:DejaVu Sans;font-size:10px;font-style:normal;font-weight:normal;text-anchor:middle;" transform="rotate(-0, 138.744153, 322.182437)" x="138.744153" y="322.182437">0.2</text>
     </g>
    </g>
    <g id="xtick_3">
     <g id="line2d_3">
      <g>
       <use style="stroke:#000000;stroke-width:0.8;" x="203.688051" xlink:href="#mce6b828a41" y="307.584"/>
      </g>
     </g>
     <g id="text_3">
      <text style="font-family:DejaVu Sans;font-size:10px;font-style:normal;font-weight:normal;text-anchor:middle;" transform="rotate(-0, 203.688051, 322.182437)" x="203.688051" y="322.182437">0.4</text>
     </g>
    </g>
    <g id="xtick_4">
     <g id="line2d_4">
      <g>
       <use style="stroke:#000000;stroke-width:0.8;" x="268.631949" xlink:href="#mce6b828a41" y="307.584"/>
      </g>
     </g>
     <g id="text_4">
      <text style="font-family:DejaVu Sans;font-size:10px;font-style:normal;font-weight:normal;text-anchor:middle;" transform="rotate(-0, 268.631949, 322.182437)" x="268.631949" y="322.182437">0.6</text>
     </g>
    </g>
    <g id="xtick_5">
     <g id="line2d_5">
      <g>
       <use style="stroke:#000000;stroke-width:0.8;" x="333.575847" xlink:href="#mce6b828a41" y="307.584"/>
      </g>
     </g>
     <g id="text_5">
      <text style="font-family:DejaVu Sans;font-size:10px;font-style:normal;font-weight:normal;text-anchor:middle;" transform="rotate(-0, 333.575847, 322.182437)" x="333.575847" y="322.182437">0.8</text>
     </g>
    </g>
    <g id="xtick_6">
     <g id="line2d_6">
      <g>
       <use style="stroke:#000000;stroke-width:0.8;" x="398.519745" xlink:href="#mce6b828a41" y="307.584"/>
      </g>
     </g>
     <g id="text_6">
      <text style="font-family:DejaVu Sans;font-size:10px;font-style:normal;font-weight:normal;text-anchor:middle;" transform="rotate(-0, 398.519745, 322.182437)" x="398.519745" y="322.182437">1.0</text>
     </g>
    </g>
    <g id="text_7">
     <text style="font-family:DejaVu Sans;font-size:10px;font-style:normal;font-weight:normal;text-anchor:middle;" transform="rotate(-0, 236.16, 335.860562)" x="236.16" y="335.860562">Probability</text>
    </g>
   </g>
   <g id="matplotlib.axis_2">
    <g id="ytick_1">
     <g id="line2d_7">
      <defs>
       <path d="M 0 0 
L -3.5 0 
" id="m0020b03805" style="stroke:#000000;stroke-width:0.8;"/>
      </defs>
      <g>
       <use style="stroke:#000000;stroke-width:0.8;" x="57.6" xlink:href="#m0020b03805" y="291.456"/>
      </g>
     </g>
     <g id="text_8">
      <text style="font-family:DejaVu Sans;font-size:10px;font-style:normal;font-weight:normal;text-anchor:end;" transform="rotate(-0, 50.6, 295.255219)" x="50.6" y="295.255219">2.0</text>
     </g>
    </g>
    <g id="ytick_2">
     <g id="line2d_8">
      <g>
       <use style="stroke:#000000;stroke-width:0.8;" x="57.6" xlink:href="#m0020b03805" y="235.456"/>
      </g>
     </g>
     <g id="text_9">
      <text style="font-family:DejaVu Sans;font-size:10px;font-style:normal;font-weight:normal;text-anchor:end;" transform="rotate(-0, 50.6, 239.255219)" x="50.6" y="239.255219">2.5</text>
     </g>
    </g>
    <g id="ytick_3">
     <g id="line2d_9">
      <g>
       <use style="stroke:#000000;stroke-width:0.8;" x="57.6" xlink:href="#m0020b03805" y="179.456"/>
      </g>
     </g>
     <g id="text_10">
      <text style="font-family:DejaVu Sans;font-size:10px;font-style:normal;font-weight:normal;text-anchor:end;" transform="rotate(-0, 50.6, 183.255219)" x="50.6" y="183.255219">3.0</text>
     </g>
    </g>
    <g id="ytick_4">
     <g id="line2d_10">
      <g>
       <use style="stroke:#000000;stroke-width:0.8;" x="57.6" xlink:href="#m0020b03805" y="123.456"/>
      </g>
     </g>
     <g id="text_11">
      <text style="font-family:DejaVu Sans;font-size:10px;font-style:normal;font-weight:normal;text-anchor:end;" transform="rotate(-0, 50.6, 127.255219)" x="50.6" y="127.255219">3.5</text>
     </g>
    </g>
    <g id="ytick_5">
     <g id="line2d_11">
      <g>
       <use style="stroke:#000000;stroke-width:0.8;" x="57.6" xlink:href="#m0020b03805" y="67.456"/>
      </g>
     </g>
     <g id="text_12">
      <text style="font-family:DejaVu Sans;font-size:10px;font-style:normal;font-weight:normal;text-anchor:end;" transform="rotate(-0, 50.6, 71.255219)" x="50.6" y="71.255219">4.0</text>
     </g>
    </g>
    <g id="text_13">
     <text style="font-family:DejaVu Sans;font-size:10px;font-style:normal;font-weight:normal;text-anchor:middle;" transform="rotate(-90, 28.617187, 174.528)" x="28.617187" y="174.528">Average Bits Consumed Per Call</text>
    </g>
   </g>
   <g id="line2d_12">
    <path clip-path="url(#pda9b9c3ceb)" d="M 73.832727 78.88 
L 77.112066 87.84 
L 80.391405 61.184 
L 83.670744 53.568 
L 86.950083 81.568 
L 90.229421 86.048 
L 93.50876 80.224 
L 96.788099 89.856 
L 100.067438 99.04 
L 103.346777 93.888 
L 106.626116 146.08 
L 109.905455 127.04 
L 113.184793 148.544 
L 116.464132 120.768 
L 119.743471 157.28 
L 123.02281 148.768 
L 126.302149 113.152 
L 129.581488 136.672 
L 132.860826 150.336 
L 136.140165 160.192 
L 139.419504 150.784 
L 142.698843 121.216 
L 145.978182 153.472 
L 149.257521 155.712 
L 152.53686 172.96 
L 155.816198 158.848 
L 159.095537 156.16 
L 162.374876 164 
L 165.654215 164.224 
L 168.933554 172.736 
L 172.212893 160.192 
L 175.492231 188.192 
L 178.77157 194.688 
L 182.050909 193.792 
L 185.330248 171.84 
L 188.609587 188.192 
L 191.888926 185.952 
L 195.168264 172.512 
L 198.447603 191.328 
L 201.726942 178.56 
L 205.006281 200.288 
L 208.28562 216.192 
L 211.564959 196.032 
L 214.844298 183.264 
L 218.123636 219.328 
L 221.402975 229.632 
L 224.682314 183.04 
L 227.961653 226.944 
L 231.240992 229.408 
L 234.520331 203.2 
L 237.799669 222.688 
L 241.079008 226.944 
L 244.358347 223.36 
L 247.637686 227.84 
L 250.917025 215.072 
L 254.196364 230.752 
L 257.475702 204.544 
L 260.755041 232.096 
L 264.03438 235.904 
L 267.313719 239.04 
L 270.593058 246.88 
L 273.872397 238.368 
L 277.151736 255.616 
L 280.431074 223.136 
L 283.710413 222.24 
L 286.989752 252.032 
L 290.269091 239.936 
L 293.54843 240.16 
L 296.827769 255.84 
L 300.107107 252.032 
L 303.386446 260.096 
L 306.665785 258.752 
L 309.945124 256.736 
L 313.224463 255.84 
L 316.503802 253.6 
L 319.78314 271.744 
L 323.062479 239.712 
L 326.341818 262.784 
L 329.621157 276.448 
L 332.900496 285.856 
L 336.179835 258.528 
L 339.459174 273.312 
L 342.738512 241.28 
L 346.017851 279.808 
L 349.29719 276.224 
L 352.576529 268.832 
L 355.855868 263.008 
L 359.135207 276.448 
L 362.414545 283.616 
L 365.693884 275.552 
L 368.973223 282.496 
L 372.252562 277.12 
L 375.531901 277.344 
L 378.81124 275.104 
L 382.090579 278.688 
L 385.369917 276.224 
L 388.649256 295.488 
L 391.928595 290.112 
L 395.207934 286.304 
L 398.487273 286.08 
" style="fill:none;stroke:#1f77b4;stroke-linecap:square;stroke-width:1.5;"/>
   </g>
   <g id="patch_3">
    <path d="M 57.6 307.584 
L 57.6 41.472 
" style="fill:none;stroke:#000000;stroke-linecap:square;stroke-linejoin:miter;stroke-width:0.8;"/>
   </g>
   <g id="patch_4">
    <path d="M 414.72 307.584 
L 414.72 41.472 
" style="fill:none;stroke:#000000;stroke-linecap:square;stroke-linejoin:miter;stroke-width:0.8;"/>
   </g>
   <g id="patch_5">
    <path d="M 57.6 307.584 
L 414.72 307.584 
" style="fill:none;stroke:#000000;stroke-linecap:square;stroke-linejoin:miter;stroke-width:0.8;"/>
   </g>
   <g id="patch_6">
    <path d="M 57.6 41.472 
L 414.72 41.472 
" style="fill:none;stroke:#000000;stroke-linecap:square;stroke-linejoin:miter;stroke-width:0.8;"/>
   </g>
   <g id="text_14">
    <text style="font-family:DejaVu Sans;font-size:12px;font-style:normal;font-weight:normal;text-anchor:middle;" transform="rotate(-0, 236.16, 35.472)" x="236.16" y="35.472">Avg. Bits Consumed by 1/(1+x) (Two-Coin Special Case) Algorithm</text>
   </g>
   <g id="legend_1">
    <g id="patch_7">
     <path d="M 214.91375 64.150125 
L 407.72 64.150125 
Q 409.72 64.150125 409.72 62.150125 
L 409.72 48.472 
Q 409.72 46.472 407.72 46.472 
L 214.91375 46.472 
Q 212.91375 46.472 212.91375 48.472 
L 212.91375 62.150125 
Q 212.91375 64.150125 214.91375 64.150125 
z
" style="fill:#ffffff;opacity:0.8;stroke:#cccccc;stroke-linejoin:miter;"/>
    </g>
    <g id="line2d_13">
     <path d="M 216.91375 54.570438 
L 236.91375 54.570438 
" style="fill:none;stroke:#1f77b4;stroke-linecap:square;stroke-width:1.5;"/>
    </g>
    <g id="line2d_14"/>
    <g id="text_15">
     <text style="font-family:DejaVu Sans;font-size:10px;font-style:normal;font-weight:normal;text-anchor:start;" transform="rotate(-0, 244.91375, 58.070438)" x="244.91375" y="58.070438">1/(1+x) (Two-Coin Special Case)</text>
    </g>
   </g>
  </g>
 </g>
 <defs>
  <clipPath id="pda9b9c3ceb">
   <rect height="266.112" width="357.12" x="57.6" y="41.472"/>
  </clipPath>
 </defs>
</svg>

<svg height="460.8" viewBox="0 0 460.8 345.6" width="614.4" xmlns="http://www.w3.org/2000/svg" xmlns:xlink="http://www.w3.org/1999/xlink"><defs><style>*{stroke-linecap:butt;stroke-linejoin:round}</style></defs><g id="figure_1"><path d="M0 345.6h460.8V0H0z" fill="#fff" id="patch_1"/><g id="axes_1"><path d="M57.6 307.584h357.12V41.472H57.6z" fill="#fff" id="patch_2"/><g id="matplotlib.axis_1"><g id="xtick_1"><g id="line2d_1"><defs><path d="M0 0v3.5" id="mce6b828a41" stroke="#000" stroke-width=".8"/></defs><use x="73.8" xlink:href="#mce6b828a41" y="307.584" stroke="#000" stroke-width=".8"/></g><text x="73.8" y="322.182" font-family="DejaVu Sans" font-size="10" font-weight="400" text-anchor="middle" id="text_1">0.0</text></g><g id="xtick_2"><use x="138.744" xlink:href="#mce6b828a41" y="307.584" stroke="#000" stroke-width=".8" id="line2d_2"/><text x="138.744" y="322.182" font-family="DejaVu Sans" font-size="10" font-weight="400" text-anchor="middle" id="text_2">0.2</text></g><g id="xtick_3"><use x="203.688" xlink:href="#mce6b828a41" y="307.584" stroke="#000" stroke-width=".8" id="line2d_3"/><text x="203.688" y="322.182" font-family="DejaVu Sans" font-size="10" font-weight="400" text-anchor="middle" id="text_3">0.4</text></g><g id="xtick_4"><use x="268.632" xlink:href="#mce6b828a41" y="307.584" stroke="#000" stroke-width=".8" id="line2d_4"/><text x="268.632" y="322.182" font-family="DejaVu Sans" font-size="10" font-weight="400" text-anchor="middle" id="text_4">0.6</text></g><g id="xtick_5"><use x="333.576" xlink:href="#mce6b828a41" y="307.584" stroke="#000" stroke-width=".8" id="line2d_5"/><text x="333.576" y="322.182" font-family="DejaVu Sans" font-size="10" font-weight="400" text-anchor="middle" id="text_5">0.8</text></g><g id="xtick_6"><use x="398.52" xlink:href="#mce6b828a41" y="307.584" stroke="#000" stroke-width=".8" id="line2d_6"/><text x="398.52" y="322.182" font-family="DejaVu Sans" font-size="10" font-weight="400" text-anchor="middle" id="text_6">1.0</text></g><text x="236.16" y="335.861" font-family="DejaVu Sans" font-size="10" font-weight="400" text-anchor="middle" id="text_7">Probability</text></g><g id="matplotlib.axis_2"><g id="ytick_1"><g id="line2d_7"><defs><path d="M0 0h-3.5" id="m0020b03805" stroke="#000" stroke-width=".8"/></defs><use x="57.6" xlink:href="#m0020b03805" y="291.456" stroke="#000" stroke-width=".8"/></g><text x="50.6" y="295.255" font-family="DejaVu Sans" font-size="10" font-weight="400" text-anchor="end" id="text_8">2.0</text></g><g id="ytick_2"><use x="57.6" xlink:href="#m0020b03805" y="235.456" stroke="#000" stroke-width=".8" id="line2d_8"/><text x="50.6" y="239.255" font-family="DejaVu Sans" font-size="10" font-weight="400" text-anchor="end" id="text_9">2.5</text></g><g id="ytick_3"><use x="57.6" xlink:href="#m0020b03805" y="179.456" stroke="#000" stroke-width=".8" id="line2d_9"/><text x="50.6" y="183.255" font-family="DejaVu Sans" font-size="10" font-weight="400" text-anchor="end" id="text_10">3.0</text></g><g id="ytick_4"><use x="57.6" xlink:href="#m0020b03805" y="123.456" stroke="#000" stroke-width=".8" id="line2d_10"/><text x="50.6" y="127.255" font-family="DejaVu Sans" font-size="10" font-weight="400" text-anchor="end" id="text_11">3.5</text></g><g id="ytick_5"><use x="57.6" xlink:href="#m0020b03805" y="67.456" stroke="#000" stroke-width=".8" id="line2d_11"/><text x="50.6" y="71.255" font-family="DejaVu Sans" font-size="10" font-weight="400" text-anchor="end" id="text_12">4.0</text></g><text transform="rotate(-90 28.617 174.528)" x="28.617" y="174.528" font-family="DejaVu Sans" font-size="10" font-weight="400" text-anchor="middle" id="text_13">Average Bits Consumed Per Call</text></g><path clip-path="url(#pda9b9c3ceb)" d="M73.833 78.88l3.28 8.96 3.278-26.656 3.28-7.616 3.28 28 3.278 4.48 3.28-5.824 3.28 9.632 3.278 9.184 3.28-5.152 3.28 52.192 3.278-19.04 3.28 21.504 3.28-27.776 3.278 36.512 3.28-8.512 3.28-35.616 3.278 23.52 3.28 13.664 3.28 9.856 3.279-9.408 3.279-29.568 3.28 32.256 3.279 2.24 3.279 17.248 3.28-14.112 3.279-2.688 3.279 7.84 3.28.224 3.279 8.512 3.279-12.544 3.28 28 3.279 6.496 3.279-.896 3.28-21.952 3.279 16.352 3.279-2.24 3.28-13.44 3.279 18.816 3.279-12.768 3.28 21.728 3.279 15.904 3.279-20.16 3.28-12.768 3.279 36.064 3.279 10.304 3.28-46.592 3.279 43.904 3.279 2.464 3.28-26.208 3.279 19.488 3.279 4.256 3.28-3.584 3.279 4.48 3.279-12.768 3.28 15.68 3.279-26.208 3.279 27.552 3.28 3.808 3.279 3.136 3.28 7.84 3.278-8.512 3.28 17.248 3.28-32.48 3.278-.896 3.28 29.792 3.28-12.096 3.278.224 3.28 15.68 3.28-3.808 3.278 8.064 3.28-1.344 3.28-2.016 3.278-.896 3.28-2.24 3.28 18.144 3.278-32.032 3.28 23.072 3.28 13.664 3.278 9.408 3.28-27.328 3.28 14.784 3.279-32.032 3.279 38.528 3.28-3.584 3.279-7.392 3.279-5.824 3.28 13.44 3.279 7.168 3.279-8.064 3.28 6.944 3.279-5.376 3.279.224 3.28-2.24 3.279 3.584 3.279-2.464 3.28 19.264 3.279-5.376 3.279-3.808 3.28-.224" fill="none" stroke="#1f77b4" stroke-linecap="square" stroke-width="1.5" id="line2d_12"/><path d="M57.6 307.584V41.472" fill="none" stroke="#000" stroke-linecap="square" stroke-width=".8" id="patch_3"/><path d="M414.72 307.584V41.472" fill="none" stroke="#000" stroke-linecap="square" stroke-width=".8" id="patch_4"/><path d="M57.6 307.584h357.12" fill="none" stroke="#000" stroke-linecap="square" stroke-width=".8" id="patch_5"/><path d="M57.6 41.472h357.12" fill="none" stroke="#000" stroke-linecap="square" stroke-width=".8" id="patch_6"/><text x="236.16" y="35.472" font-family="DejaVu Sans" font-size="12" font-weight="400" text-anchor="middle" id="text_14">Avg. Bits Consumed by 1/(1+x) (Two-Coin Special Case) Algorithm</text><g id="legend_1"><path d="M214.914 64.15H407.72q2 0 2-2V48.472q0-2-2-2H214.914q-2 0-2 2V62.15q0 2 2 2z" fill="#fff" opacity=".8" stroke="#ccc" id="patch_7"/><path d="M216.914 54.57h20" fill="none" stroke="#1f77b4" stroke-linecap="square" stroke-width="1.5" id="line2d_13"/><text x="244.914" y="58.07" font-family="DejaVu Sans" font-size="10" font-weight="400" id="text_15">1/(1+x) (Two-Coin Special Case)</text></g></g></g><defs><clipPath id="pda9b9c3ceb"><path d="M57.6 41.472h357.12v266.112H57.6z"/></clipPath></defs></svg>
